X: 38837
T: Summer Time
R: waltz
M: 3/4
K: Bminor
fd f4|f6|ed ef fd|B2 F4|
fd e4|e6|dB de d2|c6|
fd f4|f6|ed ef fd|B2 F4|
FA AF AB|Bd f2 e2|dB B4||

